X:106
T:St Maryâ€™s. JMP.106
M:2/2
L:1/2
S:John Miller MS. Perth, 1799.(for the fife)
R:.sacred
O:Scotland
A:Perth
N:No key signature apparent â€“ dark photocopy. Possibly a harmony line?
N:Looks like a tenor line, but that was often the air at that time
H:1799
Z:vmp.C. Graebe
K:E minor
â€œNo key signature in MSâ€E2 | GF | Ee | dc | B2 ||\
B2 | dG | BA | G2 ||B2 | de | fB | AG | d2 ||A2 | BE | GF | E2 |]

